X:20
T:Irish Man in Spain. Tho24CDs1792.20, The
M:2/4
Q:1/4=105
C:"92"
L:1/8
W: First Gent: Allemande with his Partner .|
W: the 2d Gent: do the same :|
W: Lead down the middle up again :|.
W: Right and Left :|
B:Thompson 24 CDs 1792
Z:Village Music Project, Anne Wride, 2017
K:G
|:ddBB|GG A2|Bdge|e2d2|ddBB|GGA2|(B/c/B/A/) GF|{A}}G2-G2:|
AGAB|c2A2|BABc|d2B2|ddBG|eedc|BgAf|g2G2:|

